X:1
T:My Love is in America
R:reel
M:4/4
L:1/8
K:Dmix
~F3G ABcB|Ad~d2 Ad~d2|~F3G ABcA|GBAG FDDE|
~F3G ABcB|Add^c defg|afge fdAF|1 GBAG FDDE:|2 GBAG FDDg|]
fd(3efg fde^c|Ad~d2 Adde|fdeg fdAF|GBAG FDDe|
fdeg fde^c|Add^c defg|afge fdAF|1 GBAG FDDg:|2 GBAG FDDE|]
